images/50514070.svg

<?xml version="1.0" encoding="UTF-8"?>
<svg xmlns="http://www.w3.org/2000/svg" xmlns:xlink="http://www.w3.org/1999/xlink" width="300pt" height="300pt" viewBox="0 0 300 300" version="1.1">
<defs>
<g>
<symbol overflow="visible" id="glyph0-0">
<path style="stroke:none;" d="M 0.453125 1.59375 L 0.453125 -6.34375 L 4.953125 -6.34375 L 4.953125 1.59375 Z M 0.953125 1.09375 L 4.453125 1.09375 L 4.453125 -5.84375 L 0.953125 -5.84375 Z M 0.953125 1.09375 "/>
</symbol>
<symbol overflow="visible" id="glyph0-1">
<path style="stroke:none;" d="M 0.890625 -6.5625 L 4.65625 -6.5625 L 4.65625 -5.8125 L 1.765625 -5.8125 L 1.765625 -3.875 L 4.375 -3.875 L 4.375 -3.140625 L 1.765625 -3.140625 L 1.765625 0 L 0.890625 0 Z M 0.890625 -6.5625 "/>
</symbol>
<symbol overflow="visible" id="glyph0-2">
<path style="stroke:none;" d="M 0.890625 -6.5625 L 2.078125 -6.5625 L 4.984375 -1.078125 L 4.984375 -6.5625 L 5.84375 -6.5625 L 5.84375 0 L 4.65625 0 L 1.75 -5.484375 L 1.75 0 L 0.890625 0 Z M 0.890625 -6.5625 "/>
</symbol>
<symbol overflow="visible" id="glyph0-3">
<path style="stroke:none;" d="M 3.546875 -5.953125 C 2.898438 -5.953125 2.382812 -5.710938 2 -5.234375 C 1.625 -4.753906 1.4375 -4.101562 1.4375 -3.28125 C 1.4375 -2.445312 1.625 -1.789062 2 -1.3125 C 2.382812 -0.832031 2.898438 -0.59375 3.546875 -0.59375 C 4.191406 -0.59375 4.703125 -0.832031 5.078125 -1.3125 C 5.453125 -1.789062 5.640625 -2.445312 5.640625 -3.28125 C 5.640625 -4.101562 5.453125 -4.753906 5.078125 -5.234375 C 4.703125 -5.710938 4.191406 -5.953125 3.546875 -5.953125 Z M 3.546875 -6.6875 C 4.460938 -6.6875 5.195312 -6.375 5.75 -5.75 C 6.300781 -5.132812 6.578125 -4.3125 6.578125 -3.28125 C 6.578125 -2.238281 6.300781 -1.410156 5.75 -0.796875 C 5.195312 -0.179688 4.460938 0.125 3.546875 0.125 C 2.617188 0.125 1.878906 -0.179688 1.328125 -0.796875 C 0.773438 -1.410156 0.5 -2.238281 0.5 -3.28125 C 0.5 -4.3125 0.773438 -5.132812 1.328125 -5.75 C 1.878906 -6.375 2.617188 -6.6875 3.546875 -6.6875 Z M 3.546875 -6.6875 "/>
</symbol>
<symbol overflow="visible" id="glyph0-4">
<path style="stroke:none;" d="M 0.890625 -6.5625 L 1.765625 -6.5625 L 1.765625 -3.875 L 5 -3.875 L 5 -6.5625 L 5.890625 -6.5625 L 5.890625 0 L 5 0 L 5 -3.125 L 1.765625 -3.125 L 1.765625 0 L 0.890625 0 Z M 0.890625 -6.5625 "/>
</symbol>
</g>
</defs>
<g id="surface27289">
<rect x="0" y="0" width="300" height="300" style="fill:rgb(100%,100%,100%);fill-opacity:1;stroke:none;"/>
<path style="fill:none;stroke-width:1.2;stroke-linecap:butt;stroke-linejoin:miter;stroke:rgb(20%,80%,80%);stroke-opacity:1;stroke-miterlimit:10;" d="M 264.75 186.015625 L 255.441406 178.402344 "/>
<path style="fill:none;stroke-width:1.2;stroke-linecap:butt;stroke-linejoin:miter;stroke:rgb(0%,0%,0%);stroke-opacity:1;stroke-miterlimit:10;" d="M 255.441406 178.402344 L 246.136719 170.785156 "/>
<path style=" stroke:none;fill-rule:nonzero;fill:rgb(100%,100%,100%);fill-opacity:1;" d="M 261.75 180.515625 L 267.75 180.515625 L 267.75 191.515625 L 261.75 191.515625 Z M 261.75 180.515625 "/>
<g style="fill:rgb(20%,80%,80%);fill-opacity:1;">
  <use xlink:href="#glyph0-1" x="261.75" y="189.178711"/>
</g>
<path style="fill:none;stroke-width:1.2;stroke-linecap:butt;stroke-linejoin:miter;stroke:rgb(0%,0%,0%);stroke-opacity:1;stroke-miterlimit:10;" d="M 246.136719 170.785156 L 223.640625 179.292969 "/>
<path style="fill:none;stroke-width:1.2;stroke-linecap:butt;stroke-linejoin:miter;stroke:rgb(0%,0%,0%);stroke-opacity:1;stroke-miterlimit:10;" d="M 241.882812 166.34375 L 223.886719 173.148438 "/>
<path style="fill:none;stroke-width:1.2;stroke-linecap:butt;stroke-linejoin:miter;stroke:rgb(0%,0%,0%);stroke-opacity:1;stroke-miterlimit:10;" d="M 250.015625 147.050781 L 246.136719 170.785156 "/>
<path style="fill:none;stroke-width:1.2;stroke-linecap:butt;stroke-linejoin:miter;stroke:rgb(0%,0%,0%);stroke-opacity:1;stroke-miterlimit:10;" d="M 223.640625 179.292969 L 205.023438 164.0625 "/>
<path style="fill:none;stroke-width:1.2;stroke-linecap:butt;stroke-linejoin:miter;stroke:rgb(0%,0%,0%);stroke-opacity:1;stroke-miterlimit:10;" d="M 205.023438 164.0625 L 193.777344 168.316406 "/>
<path style="fill:none;stroke-width:1.2;stroke-linecap:butt;stroke-linejoin:miter;stroke:rgb(0%,0%,100%);stroke-opacity:1;stroke-miterlimit:10;" d="M 193.777344 168.316406 L 182.527344 172.570312 "/>
<path style="fill:none;stroke-width:1.2;stroke-linecap:butt;stroke-linejoin:miter;stroke:rgb(0%,0%,0%);stroke-opacity:1;stroke-miterlimit:10;" d="M 205.023438 164.0625 L 208.90625 140.328125 "/>
<path style="fill:none;stroke-width:1.2;stroke-linecap:butt;stroke-linejoin:miter;stroke:rgb(0%,0%,0%);stroke-opacity:1;stroke-miterlimit:10;" d="M 210.996094 162.605469 L 214.101562 143.613281 "/>
<path style="fill:none;stroke-width:1.2;stroke-linecap:butt;stroke-linejoin:miter;stroke:rgb(0%,0%,100%);stroke-opacity:1;stroke-miterlimit:10;" d="M 182.527344 172.570312 L 176.1875 195.769531 "/>
<path style="fill:none;stroke-width:1.2;stroke-linecap:butt;stroke-linejoin:miter;stroke:rgb(0%,0%,0%);stroke-opacity:1;stroke-miterlimit:10;" d="M 162.421875 159.371094 L 172.476562 165.96875 "/>
<path style="fill:none;stroke-width:1.2;stroke-linecap:butt;stroke-linejoin:miter;stroke:rgb(0%,0%,100%);stroke-opacity:1;stroke-miterlimit:10;" d="M 172.476562 165.96875 L 182.527344 172.570312 "/>
<path style=" stroke:none;fill-rule:nonzero;fill:rgb(100%,100%,100%);fill-opacity:1;" d="M 179.527344 167.070312 L 186.527344 167.070312 L 186.527344 178.070312 L 179.527344 178.070312 Z M 179.527344 167.070312 "/>
<g style="fill:rgb(0%,0%,100%);fill-opacity:1;">
  <use xlink:href="#glyph0-2" x="179.527344" y="175.733398"/>
</g>
<path style="fill:none;stroke-width:1.2;stroke-linecap:butt;stroke-linejoin:miter;stroke:rgb(0%,0%,100%);stroke-opacity:1;stroke-miterlimit:10;" d="M 176.1875 195.769531 L 164.175781 196.339844 "/>
<path style="fill:none;stroke-width:1.2;stroke-linecap:butt;stroke-linejoin:miter;stroke:rgb(0%,0%,0%);stroke-opacity:1;stroke-miterlimit:10;" d="M 164.175781 196.339844 L 152.164062 196.90625 "/>
<path style="fill:none;stroke-width:1.2;stroke-linecap:butt;stroke-linejoin:miter;stroke:rgb(0%,0%,100%);stroke-opacity:1;stroke-miterlimit:10;" d="M 173.515625 190.230469 L 163.90625 190.6875 "/>
<path style="fill:none;stroke-width:1.2;stroke-linecap:butt;stroke-linejoin:miter;stroke:rgb(0%,0%,0%);stroke-opacity:1;stroke-miterlimit:10;" d="M 163.90625 190.6875 L 154.296875 191.140625 "/>
<path style=" stroke:none;fill-rule:nonzero;fill:rgb(100%,100%,100%);fill-opacity:1;" d="M 173.1875 190.269531 L 180.1875 190.269531 L 180.1875 201.269531 L 173.1875 201.269531 Z M 173.1875 190.269531 "/>
<g style="fill:rgb(0%,0%,100%);fill-opacity:1;">
  <use xlink:href="#glyph0-2" x="173.1875" y="198.932617"/>
</g>
<path style="fill:none;stroke-width:1.2;stroke-linecap:butt;stroke-linejoin:miter;stroke:rgb(0%,0%,0%);stroke-opacity:1;stroke-miterlimit:10;" d="M 152.164062 196.90625 L 143.65625 174.410156 "/>
<path style="fill:none;stroke-width:1.2;stroke-linecap:butt;stroke-linejoin:miter;stroke:rgb(0%,0%,0%);stroke-opacity:1;stroke-miterlimit:10;" d="M 143.65625 174.410156 L 162.421875 159.371094 "/>
<path style="fill:none;stroke-width:1.2;stroke-linecap:butt;stroke-linejoin:miter;stroke:rgb(0%,0%,0%);stroke-opacity:1;stroke-miterlimit:10;" d="M 141.992188 168.492188 L 157.007812 156.457031 "/>
<path style="fill:none;stroke-width:1.2;stroke-linecap:butt;stroke-linejoin:miter;stroke:rgb(0%,0%,0%);stroke-opacity:1;stroke-miterlimit:10;" d="M 121.246094 165.679688 L 143.65625 174.410156 "/>
<path style="fill:none;stroke-width:1.2;stroke-linecap:butt;stroke-linejoin:miter;stroke:rgb(0%,0%,0%);stroke-opacity:1;stroke-miterlimit:10;" d="M 162.421875 159.371094 L 160.601562 147.484375 "/>
<path style="fill:none;stroke-width:1.2;stroke-linecap:butt;stroke-linejoin:miter;stroke:rgb(0%,0%,100%);stroke-opacity:1;stroke-miterlimit:10;" d="M 160.601562 147.484375 L 158.78125 135.597656 "/>
<path style="fill:none;stroke-width:1.2;stroke-linecap:butt;stroke-linejoin:miter;stroke:rgb(0%,0%,100%);stroke-opacity:1;stroke-miterlimit:10;" d="M 158.78125 135.597656 L 168.164062 128.074219 "/>
<path style="fill:none;stroke-width:1.2;stroke-linecap:butt;stroke-linejoin:miter;stroke:rgb(0%,0%,0%);stroke-opacity:1;stroke-miterlimit:10;" d="M 168.164062 128.074219 L 177.546875 120.554688 "/>
<path style="fill:none;stroke-width:1.2;stroke-linecap:butt;stroke-linejoin:miter;stroke:rgb(0%,0%,100%);stroke-opacity:1;stroke-miterlimit:10;" d="M 158.78125 135.597656 L 147.574219 131.230469 "/>
<path style="fill:none;stroke-width:1.2;stroke-linecap:butt;stroke-linejoin:miter;stroke:rgb(0%,0%,0%);stroke-opacity:1;stroke-miterlimit:10;" d="M 147.574219 131.230469 L 136.371094 126.863281 "/>
<path style=" stroke:none;fill-rule:nonzero;fill:rgb(100%,100%,100%);fill-opacity:1;" d="M 155.78125 130.097656 L 162.78125 130.097656 L 162.78125 141.097656 L 155.78125 141.097656 Z M 155.78125 130.097656 "/>
<g style="fill:rgb(0%,0%,100%);fill-opacity:1;">
  <use xlink:href="#glyph0-2" x="155.78125" y="138.760742"/>
</g>
<path style="fill:none;stroke-width:1.2;stroke-linecap:butt;stroke-linejoin:miter;stroke:rgb(0%,0%,0%);stroke-opacity:1;stroke-miterlimit:10;" d="M 139.167969 126.4375 L 137.34375 114.550781 "/>
<path style="fill:none;stroke-width:1.2;stroke-linecap:butt;stroke-linejoin:miter;stroke:rgb(100%,0%,0%);stroke-opacity:1;stroke-miterlimit:10;" d="M 137.34375 114.550781 L 135.523438 102.664062 "/>
<path style="fill:none;stroke-width:1.2;stroke-linecap:butt;stroke-linejoin:miter;stroke:rgb(0%,0%,0%);stroke-opacity:1;stroke-miterlimit:10;" d="M 133.574219 127.292969 L 131.75 115.40625 "/>
<path style="fill:none;stroke-width:1.2;stroke-linecap:butt;stroke-linejoin:miter;stroke:rgb(100%,0%,0%);stroke-opacity:1;stroke-miterlimit:10;" d="M 131.75 115.40625 L 129.929688 103.519531 "/>
<path style="fill:none;stroke-width:1.2;stroke-linecap:butt;stroke-linejoin:miter;stroke:rgb(0%,0%,0%);stroke-opacity:1;stroke-miterlimit:10;" d="M 136.371094 126.863281 L 117.601562 141.90625 "/>
<path style=" stroke:none;fill-rule:nonzero;fill:rgb(100%,100%,100%);fill-opacity:1;" d="M 128.726562 97.59375 L 136.726562 97.59375 L 136.726562 108.59375 L 128.726562 108.59375 Z M 128.726562 97.59375 "/>
<g style="fill:rgb(100%,0%,0%);fill-opacity:1;">
  <use xlink:href="#glyph0-3" x="128.726562" y="106.256836"/>
</g>
<path style="fill:none;stroke-width:1.2;stroke-linecap:butt;stroke-linejoin:miter;stroke:rgb(0%,0%,0%);stroke-opacity:1;stroke-miterlimit:10;" d="M 117.601562 141.90625 L 121.246094 165.679688 "/>
<path style="fill:none;stroke-width:1.2;stroke-linecap:butt;stroke-linejoin:miter;stroke:rgb(0%,0%,0%);stroke-opacity:1;stroke-miterlimit:10;" d="M 123.5625 143.425781 L 126.476562 162.445312 "/>
<path style="fill:none;stroke-width:1.2;stroke-linecap:butt;stroke-linejoin:miter;stroke:rgb(0%,0%,0%);stroke-opacity:1;stroke-miterlimit:10;" d="M 121.246094 165.679688 L 111.863281 173.199219 "/>
<path style="fill:none;stroke-width:1.2;stroke-linecap:butt;stroke-linejoin:miter;stroke:rgb(0%,0%,100%);stroke-opacity:1;stroke-miterlimit:10;" d="M 111.863281 173.199219 L 102.480469 180.722656 "/>
<path style="fill:none;stroke-width:1.2;stroke-linecap:butt;stroke-linejoin:miter;stroke:rgb(0%,0%,100%);stroke-opacity:1;stroke-miterlimit:10;" d="M 102.480469 180.722656 L 91.273438 176.355469 "/>
<path style="fill:none;stroke-width:1.2;stroke-linecap:butt;stroke-linejoin:miter;stroke:rgb(0%,0%,0%);stroke-opacity:1;stroke-miterlimit:10;" d="M 91.273438 176.355469 L 80.070312 171.992188 "/>
<path style=" stroke:none;fill-rule:nonzero;fill:rgb(100%,100%,100%);fill-opacity:1;" d="M 95.480469 175.222656 L 109.480469 175.222656 L 109.480469 186.222656 L 95.480469 186.222656 Z M 95.480469 175.222656 "/>
<g style="fill:rgb(0%,0%,100%);fill-opacity:1;">
  <use xlink:href="#glyph0-2" x="95.480469" y="183.885742"/>
  <use xlink:href="#glyph0-4" x="102.458008" y="183.885742"/>
</g>
<path style="fill:none;stroke-width:1.2;stroke-linecap:butt;stroke-linejoin:miter;stroke:rgb(0%,0%,0%);stroke-opacity:1;stroke-miterlimit:10;" d="M 80.070312 171.992188 L 76.425781 148.21875 "/>
<path style="fill:none;stroke-width:1.2;stroke-linecap:butt;stroke-linejoin:miter;stroke:rgb(0%,0%,0%);stroke-opacity:1;stroke-miterlimit:10;" d="M 61.304688 187.03125 L 80.070312 171.992188 "/>
<path style="fill:none;stroke-width:1.2;stroke-linecap:butt;stroke-linejoin:miter;stroke:rgb(0%,0%,0%);stroke-opacity:1;stroke-miterlimit:10;" d="M 76.425781 148.21875 L 54.015625 139.484375 "/>
<path style="fill:none;stroke-width:1.2;stroke-linecap:butt;stroke-linejoin:miter;stroke:rgb(0%,0%,0%);stroke-opacity:1;stroke-miterlimit:10;" d="M 54.015625 139.484375 L 44.632812 147.007812 "/>
<path style="fill:none;stroke-width:1.2;stroke-linecap:butt;stroke-linejoin:miter;stroke:rgb(100%,0%,0%);stroke-opacity:1;stroke-miterlimit:10;" d="M 44.632812 147.007812 L 35.25 154.527344 "/>
<path style="fill:none;stroke-width:1.2;stroke-linecap:butt;stroke-linejoin:miter;stroke:rgb(100%,0%,0%);stroke-opacity:1;stroke-miterlimit:10;" d="M 35.25 154.527344 L 37.070312 166.414062 "/>
<path style="fill:none;stroke-width:1.2;stroke-linecap:butt;stroke-linejoin:miter;stroke:rgb(0%,0%,0%);stroke-opacity:1;stroke-miterlimit:10;" d="M 37.070312 166.414062 L 38.894531 178.300781 "/>
<path style=" stroke:none;fill-rule:nonzero;fill:rgb(100%,100%,100%);fill-opacity:1;" d="M 31.25 149.027344 L 39.25 149.027344 L 39.25 160.027344 L 31.25 160.027344 Z M 31.25 149.027344 "/>
<g style="fill:rgb(100%,0%,0%);fill-opacity:1;">
  <use xlink:href="#glyph0-3" x="31.25" y="157.69043"/>
</g>
<path style="fill:none;stroke-width:1.2;stroke-linecap:butt;stroke-linejoin:miter;stroke:rgb(0%,0%,0%);stroke-opacity:1;stroke-miterlimit:10;" d="M 38.894531 178.300781 L 61.304688 187.03125 "/>
<path style="fill:none;stroke-width:1.2;stroke-linecap:butt;stroke-linejoin:miter;stroke:rgb(0%,0%,0%);stroke-opacity:1;stroke-miterlimit:10;" d="M 208.90625 140.328125 L 231.402344 131.820312 "/>
<path style="fill:none;stroke-width:1.2;stroke-linecap:butt;stroke-linejoin:miter;stroke:rgb(0%,0%,0%);stroke-opacity:1;stroke-miterlimit:10;" d="M 231.402344 131.820312 L 250.015625 147.050781 "/>
<path style="fill:none;stroke-width:1.2;stroke-linecap:butt;stroke-linejoin:miter;stroke:rgb(0%,0%,0%);stroke-opacity:1;stroke-miterlimit:10;" d="M 229.679688 137.726562 L 244.570312 149.910156 "/>
</g>
</svg>

<svg xmlns="http://www.w3.org/2000/svg" xmlns:xlink="http://www.w3.org/1999/xlink" width="300pt" height="300pt" viewBox="0 0 300 300"><defs><symbol overflow="visible"><path d="M.453 1.594v-7.938h4.5v7.938zm.5-.5h3.5v-6.938h-3.5zm0 0"/></symbol><symbol overflow="visible" id="a"><path d="M.89-6.563h3.766v.75h-2.89v1.938h2.61v.734h-2.61V0H.89zm0 0"/></symbol><symbol overflow="visible" id="b"><path d="M.89-6.563H2.08l2.906 5.485v-5.484h.86V0H4.656L1.75-5.484V0H.89zm0 0"/></symbol><symbol overflow="visible" id="c"><path d="M3.547-5.953c-.65 0-1.164.242-1.547.72-.375.48-.563 1.13-.563 1.952 0 .835.188 1.49.563 1.967.383.48.898.72 1.547.72.644 0 1.156-.24 1.53-.72.376-.476.564-1.132.564-1.968 0-.822-.187-1.474-.562-1.954-.375-.477-.887-.72-1.53-.72zm0-.734c.914 0 1.648.312 2.203.937.55.617.828 1.438.828 2.47 0 1.042-.277 1.87-.828 2.483-.555.617-1.29.922-2.203.922-.93 0-1.668-.305-2.22-.922C.774-1.41.5-2.237.5-3.28c0-1.033.273-1.853.828-2.47.55-.625 1.29-.938 2.22-.938zm0 0"/></symbol><symbol overflow="visible" id="d"><path d="M.89-6.563h.876v2.688H5v-2.688h.89V0H5v-3.125H1.766V0H.89zm0 0"/></symbol></defs><g><path fill="#fff" d="M0 0h300v300H0z"/><path d="M264.75 186.016l-9.31-7.614" stroke-width="1.2" stroke="#3cc" stroke-miterlimit="10" fill="none"/><path d="M255.44 178.402l-9.303-7.617" stroke-width="1.2" stroke="#000" stroke-miterlimit="10" fill="none"/><path d="M261.75 180.516h6v11h-6zm0 0" fill="#fff"/><use xlink:href="#a" x="261.75" y="189.179" fill="#3cc"/><path d="M246.137 170.785l-22.496 8.508M241.883 166.344l-17.996 6.804M250.016 147.05l-3.88 23.735M223.64 179.293l-18.617-15.23M205.023 164.063l-11.246 4.253" stroke-width="1.2" stroke="#000" stroke-miterlimit="10" fill="none"/><path d="M193.777 168.316l-11.25 4.254" stroke-width="1.2" stroke="#00f" stroke-miterlimit="10" fill="none"/><path d="M205.023 164.063l3.883-23.735M210.996 162.605l3.106-18.992" stroke-width="1.2" stroke="#000" stroke-miterlimit="10" fill="none"/><path d="M182.527 172.57l-6.34 23.2" stroke-width="1.2" stroke="#00f" stroke-miterlimit="10" fill="none"/><path d="M162.422 159.37l10.055 6.6" stroke-width="1.2" stroke="#000" stroke-miterlimit="10" fill="none"/><path d="M172.477 165.97l10.05 6.6" stroke-width="1.2" stroke="#00f" stroke-miterlimit="10" fill="none"/><path d="M179.527 167.07h7v11h-7zm0 0" fill="#fff"/><use xlink:href="#b" x="179.527" y="175.733" fill="#00f"/><path d="M176.188 195.77l-12.012.57" stroke-width="1.2" stroke="#00f" stroke-miterlimit="10" fill="none"/><path d="M164.176 196.34l-12.012.566" stroke-width="1.2" stroke="#000" stroke-miterlimit="10" fill="none"/><path d="M173.516 190.23l-9.61.458" stroke-width="1.2" stroke="#00f" stroke-miterlimit="10" fill="none"/><path d="M163.906 190.688l-9.61.453" stroke-width="1.2" stroke="#000" stroke-miterlimit="10" fill="none"/><path d="M173.188 190.27h7v11h-7zm0 0" fill="#fff"/><use xlink:href="#b" x="173.188" y="198.933" fill="#00f"/><path d="M152.164 196.906l-8.508-22.496M143.656 174.41l18.766-15.04M141.992 168.492l15.016-12.035M121.246 165.68l22.41 8.73M162.422 159.37l-1.82-11.886" stroke-width="1.2" stroke="#000" stroke-miterlimit="10" fill="none"/><path d="M160.602 147.484l-1.82-11.886M158.78 135.598l9.384-7.524" stroke-width="1.2" stroke="#00f" stroke-miterlimit="10" fill="none"/><path d="M168.164 128.074l9.383-7.52" stroke-width="1.2" stroke="#000" stroke-miterlimit="10" fill="none"/><path d="M158.78 135.598l-11.206-4.368" stroke-width="1.2" stroke="#00f" stroke-miterlimit="10" fill="none"/><path d="M147.574 131.23l-11.203-4.367" stroke-width="1.2" stroke="#000" stroke-miterlimit="10" fill="none"/><path d="M155.78 130.098h7v11h-7zm0 0" fill="#fff"/><use xlink:href="#b" x="155.781" y="138.761" fill="#00f"/><path d="M139.168 126.438l-1.824-11.887" stroke-width="1.2" stroke="#000" stroke-miterlimit="10" fill="none"/><path d="M137.344 114.55l-1.82-11.886" stroke-width="1.2" stroke="#f00" stroke-miterlimit="10" fill="none"/><path d="M133.574 127.293l-1.824-11.887" stroke-width="1.2" stroke="#000" stroke-miterlimit="10" fill="none"/><path d="M131.75 115.406l-1.82-11.886" stroke-width="1.2" stroke="#f00" stroke-miterlimit="10" fill="none"/><path d="M136.37 126.863l-18.768 15.043" stroke-width="1.2" stroke="#000" stroke-miterlimit="10" fill="none"/><path d="M128.727 97.594h8v11h-8zm0 0" fill="#fff"/><use xlink:href="#c" x="128.727" y="106.257" fill="#f00"/><path d="M117.602 141.906l3.644 23.774M123.563 143.426l2.914 19.02M121.246 165.68l-9.383 7.52" stroke-width="1.2" stroke="#000" stroke-miterlimit="10" fill="none"/><path d="M111.863 173.2l-9.383 7.523M102.48 180.723l-11.207-4.368" stroke-width="1.2" stroke="#00f" stroke-miterlimit="10" fill="none"/><path d="M91.273 176.355l-11.203-4.363" stroke-width="1.2" stroke="#000" stroke-miterlimit="10" fill="none"/><path d="M95.48 175.223h14v11h-14zm0 0" fill="#fff"/><g fill="#00f"><use xlink:href="#b" x="95.48" y="183.886"/><use xlink:href="#d" x="102.458" y="183.886"/></g><path d="M80.07 171.992l-3.644-23.773M61.305 187.03l18.765-15.038M76.426 148.22l-22.41-8.736M54.016 139.484l-9.383 7.524" stroke-width="1.2" stroke="#000" stroke-miterlimit="10" fill="none"/><path d="M44.633 147.008l-9.383 7.52M35.25 154.527l1.82 11.887" stroke-width="1.2" stroke="#f00" stroke-miterlimit="10" fill="none"/><path d="M37.07 166.414l1.825 11.887" stroke-width="1.2" stroke="#000" stroke-miterlimit="10" fill="none"/><path d="M31.25 149.027h8v11h-8zm0 0" fill="#fff"/><use xlink:href="#c" x="31.25" y="157.69" fill="#f00"/><path d="M38.895 178.3l22.41 8.73M208.906 140.328l22.496-8.508M231.402 131.82l18.614 15.23M229.68 137.727l14.89 12.183" stroke-width="1.2" stroke="#000" stroke-miterlimit="10" fill="none"/></g></svg>
